X:23
T:Toormore \#1
N:For teaching purposes from Alan Ng
Z: id:ng-other-23 Transcribed by Alan Ng alan@alan-ng.nospam (net) 31 Jan. 2004
M:2/4
L:1/8
K:AMix
E:11
|ef/e/ dB|BA B/c/d|ef/e/ dB|BA A2|\
ef/e/ dB|BA B/c/d|ab/a/ gf|ed d:|*
e|f2 fA|Bd ef|g2 ga|ba f/g/a|\
f2 fA|Bd ef|ab/a/ gf|ed d:|**
